src/assets/fleet-icons/upload.svg

<svg width="20" height="20" viewBox="0 0 20 20" fill="none" xmlns="http://www.w3.org/2000/svg">
<path d="M3.5 11.569V13.8103C3.5 15.2958 4.7042 16.5 6.18965 16.5H13.8103C15.2958 16.5 16.5 15.2958 16.5 13.8103V11.569M3.5 11.569V7.08621C3.5 5.83294 4.35717 4.77987 5.51724 4.48129M3.5 11.569H7.98276V12.0172C7.98276 13.0075 8.78556 13.8103 9.77586 13.8103H10.2241C11.2144 13.8103 12.0172 13.0075 12.0172 12.0172V11.569H16.5M16.5 11.569V7.08621C16.5 5.83294 15.6428 4.77987 14.4828 4.48129M10 8.43103V3.5M10 3.5L7.98276 5.74138M10 3.5L12.0172 5.74138" stroke="#FF4D14" stroke-linecap="round" stroke-linejoin="round"/>
</svg>

<svg width="20" height="20" fill="none" xmlns="http://www.w3.org/2000/svg">
    <path
        d="M3.5 11.569v2.241a2.69 2.69 0 0 0 2.69 2.69h7.62a2.69 2.69 0 0 0 2.69-2.69v-2.24m-13 0V7.086a2.69 2.69 0 0 1 2.017-2.605M3.5 11.57h4.483v.448c0 .99.803 1.793 1.793 1.793h.448c.99 0 1.793-.803 1.793-1.793v-.448H16.5m0 0V7.086a2.69 2.69 0 0 0-2.017-2.605M10 8.431V3.5m0 0L7.983 5.741M10 3.5l2.017 2.241"
        stroke="#FF4D14" stroke-linecap="round" stroke-linejoin="round" />
</svg>
